gama.ui.shared/icons_svg/light/views/open.inspector.svg

<svg height="25" viewBox="-672.5 -3407.468 25 25" width="25" xmlns="http://www.w3.org/2000/svg"><g fill="none"><path d="m-668.16-3406.968h16.32c2.12076 0 3.84 1.719 3.84 3.84v16.32c0 2.1207-1.71924 3.84-3.84 3.84h-16.32c-2.1208 0-3.84-1.7193-3.84-3.84v-16.32c0-2.121 1.7192-3.84 3.84-3.84z" fill="#fff"/><path d="m-668.16-3406.968h16.32c2.12076 0 3.84 1.719 3.84 3.84v16.32c0 2.1207-1.71924 3.84-3.84 3.84h-16.32c-2.1208 0-3.84-1.7193-3.84-3.84v-16.32c0-2.121 1.7192-3.84 3.84-3.84z" stroke="#000" stroke-linecap="round" stroke-linejoin="round" stroke-width=".25"/><path d="m-667.97-3395.1115c1.71155-4.4069 6.6623-6.5905 11.0612-4.8788 2.23945.8718 4.015 2.6393 4.8788 4.8788.04.0959.04.1999 0 .2879-1.7036 4.3989-6.66234 6.5903-11.06124 4.8786-2.23946-.8716-4.007-2.639-4.87876-4.8786-.04-.096-.04-.2 0-.2879zm5.1747 4.4229c3.943 1.5276 8.3739-.384 9.9655-4.279-.8078-1.9594-2.3834-3.5111-4.3669-4.2789-3.943-1.5275-8.3659.3839-9.9655 4.2789.8078 1.9596 2.3834 3.5111 4.3669 4.279zm2.7993-1.0798c-1.7676 0-3.1992-1.4316-3.1992-3.1992 0-1.7674 1.4316-3.1992 3.1992-3.1992 1.76754 0 3.1992 1.4318 3.1992 3.1992 0 1.7676-1.43166 3.1992-3.1992 3.1992zm0-.7996c1.32765 0 2.3994-1.072 2.3994-2.3996s-1.07175-2.3994-2.3994-2.3994c-1.3277 0-2.3994 1.0718-2.3994 2.3994s1.0717 2.3996 2.3994 2.3996z" fill="#5c76a1"/></g></svg>

<?xml version="1.0" encoding="UTF-8" standalone="no"?>
<!DOCTYPE svg PUBLIC "-//W3C//DTD SVG 1.1//EN" "http://www.w3.org/Graphics/SVG/1.1/DTD/svg11.dtd">
<svg version="1.1" xmlns="http://www.w3.org/2000/svg" xmlns:xl="http://www.w3.org/1999/xlink" xmlns:dc="http://purl.org/dc/elements/1.1/" viewBox="-672.5 -3407.468 25 25" width="25" height="25">
  <defs/>
  <g id="SOURCES" stroke-dasharray="none" fill="none" stroke="none" fill-opacity="1" stroke-opacity="1">
    <title>SOURCES</title>
    <g id="SOURCES_Calque_2">
      <title>Calque 2</title>
      <g id="Group_9744">
        <g id="Graphic_9737">
          <path d="M -668.16 -3406.968 L -651.84 -3406.968 C -649.71924 -3406.968 -648 -3405.249 -648 -3403.128 L -648 -3386.808 C -648 -3384.6873 -649.71924 -3382.968 -651.84 -3382.968 L -668.16 -3382.968 C -670.2808 -3382.968 -672 -3384.6873 -672 -3386.808 L -672 -3403.128 C -672 -3405.249 -670.2808 -3406.968 -668.16 -3406.968 Z" fill="white"/>
          <path d="M -668.16 -3406.968 L -651.84 -3406.968 C -649.71924 -3406.968 -648 -3405.249 -648 -3403.128 L -648 -3386.808 C -648 -3384.6873 -649.71924 -3382.968 -651.84 -3382.968 L -668.16 -3382.968 C -670.2808 -3382.968 -672 -3384.6873 -672 -3386.808 L -672 -3403.128 C -672 -3405.249 -670.2808 -3406.968 -668.16 -3406.968 Z" stroke="black" stroke-linecap="round" stroke-linejoin="round" stroke-width=".25"/>
        </g>
        <g id="Group_9742">
          <title>eye</title>
          <g id="Graphic_9743">
            <path d="M -667.97 -3395.1115 C -666.25845 -3399.5184 -661.3077 -3401.702 -656.9088 -3399.9903 C -654.66935 -3399.1185 -652.8938 -3397.351 -652.03 -3395.1115 C -651.99 -3395.0156 -651.99 -3394.9116 -652.03 -3394.8236 C -653.7336 -3390.4247 -658.69234 -3388.2333 -663.09124 -3389.945 C -665.3307 -3390.8166 -667.09824 -3392.584 -667.97 -3394.8236 C -668.01 -3394.9196 -668.01 -3395.0236 -667.97 -3395.1115 Z M -662.7953 -3390.6886 C -658.8523 -3389.161 -654.4214 -3391.0726 -652.8298 -3394.9676 C -653.6376 -3396.927 -655.2132 -3398.4787 -657.1967 -3399.2465 C -661.1397 -3400.774 -665.5626 -3398.8626 -667.1622 -3394.9676 C -666.3544 -3393.008 -664.7788 -3391.4565 -662.7953 -3390.6886 Z M -659.996 -3391.7684 C -661.7636 -3391.7684 -663.1952 -3393.2 -663.1952 -3394.9676 C -663.1952 -3396.735 -661.7636 -3398.1668 -659.996 -3398.1668 C -658.22846 -3398.1668 -656.7968 -3396.735 -656.7968 -3394.9676 C -656.7968 -3393.2 -658.22846 -3391.7684 -659.996 -3391.7684 Z M -659.996 -3392.568 C -658.66835 -3392.568 -657.5966 -3393.64 -657.5966 -3394.9676 C -657.5966 -3396.2952 -658.66835 -3397.367 -659.996 -3397.367 C -661.3237 -3397.367 -662.3954 -3396.2952 -662.3954 -3394.9676 C -662.3954 -3393.64 -661.3237 -3392.568 -659.996 -3392.568 Z" fill="#5c76a1"/>
          </g>
        </g>
      </g>
    </g>
  </g>
</svg>
